!!!!SEGMENT: pl-cz--iii-979--008_kasprzykowski-ignacy--missa-es-benedictus.krn
!!!cenid: 18xx:863
!!!COM: Kasprzykowski, Ignacy
!!!COM-rismID:
!!!CDT: -1752/02/17
!!!CNT:
!!!OPR: Missa Es
!!!OTL: Benedictus
!!!OMV: 008
!!!PDT:
!!!AGN: Sacred; Mass
!!!SMS-siglum: PL-CZ
!!!SMS-shelfmark: III-979
!!!SMS-shelfwork: 001-008 M
!!!SMS-variant:
!!!SMS-altvar:
!!!NIFC-rismSourceID: 300000565
!!!NIFC-islandoraID: pl-cz:41795
!!!URL-pdf-islandora: https://repozytorium.nifc.pl/islandora/object/pl-cz%3A41795/datastream/PDF/view
!!!URL-scan:
!!!ONB-nifc: UWAGA: części Mszy: Kyrie, Gloria, Credo, Et incarnatus, Et resurrexit, Sanctus, Pleni,
!!!AIN: 1 bass 1 clars 1 soprn 1 violn
!!!key: E-
**kern	**dynam	**kern	**text	**kern	**text	**kern
*part4	*part4	*part3	*part3	*part2	*part2	*part1
*staff4	*	*staff3	*staff3	*staff2	*staff2	*staff1
*I"Violino Primo in Dis	*	*I"Baſso in Dis	*	*I"Canto in. Dis	*	*I"Clarinetto Primo in B
*I'vl 1 in Dis	*	*I'B	*	*I'S	*	*I'cl 1 in B
*Ivioln	*	*Ibass	*	*Isoprn	*	*Iclars
*ICstr	*	*ICvox	*	*ICvox	*	*ICww
*	*	*IGsolo	*	*IGsolo	*	*
*mI"Violino I	*	*mI"Basso	*	*mI"Soprano	*	*mI"Clarinetto I in Bb
*clefG2	*	*clefF4	*	*clefC1	*	*clefG2
*	*	*	*	*mclefG2	*	*
*	*	*	*	*	*	*ITrd1c2
*k[b-e-a-]	*	*k[a-e-b-]	*	*k[b-e-a-]	*	*k[b-e-a-]
*	*	*mk[b-e-a-]	*	*	*	*
*E-:	*	*E-:	*	*E-:	*	*E-:
*M3/4	*	*M3/4	*	*M3/4	*	*M3/4
*	*below	*	*	*	*	*
=1	=1	=1	=1	=1	=1	=1
!!!OMD:
!!!OMD-mod: Adagio
!	!	!LO:TX:a:t=Adagio:mod=	!	!LO:TX:a:t=12:mod=	!	!
!	!	!LO:TX:a:t=Benedictus:mod=	!	!LO:TX:t=P:problem=kolejność znaków b- a- e-:mod=	!	!LO:TX:a:t=11.:mod=
!LO:TX:a:t=andante.:mod=	!	!LO:TX:t=P:problem=kolejność znaków a- e- b-:mod=	!LO:TX:t=P:problem=partia Canto na karcie Clarinetto Primo[skan 009 r]:mod=	!LO:TX:a:t=Adagio:mod=	!	!LO:TX:a:t=adagio:mod=
!LO:TX:a:t=Benedictus:mod=	!	!LO:TX:a:t=12:mod=	!	!LO:TX:a:t=Benedictus:mod=	!	!LO:TX:a:t=Benedict(us):mod=
8r	.	2.r	.	2.r	.	2.r
8e-'/	.	.	.	.	.	.
*tremolo	*	*	*	*	*	*
!LO:TX:b:t=....:mod=	!	!	!	!	!	!
8e-/L'	.	.	.	.	.	.
8e-/'	.	.	.	.	.	.
8e-/'	.	.	.	.	.	.
8e-/J'	.	.	.	.	.	.
*Xtremolo	*	*	*	*	*	*
=2	=2	=2	=2	=2	=2	=2
8r	.	2.r	.	2.r	.	2.r
8e-/	.	.	.	.	.	.
(8e-/L	<	.	.	.	.	.
8f/	.	.	.	.	.	.
8e-/)	.	.	.	.	.	.
8d/J	[	.	.	.	.	.
=3	=3	=3	=3	=3	=3	=3
8r	.	2.r	.	2.r	.	2.r
8d'/	.	.	.	.	.	.
*tremolo	*	*	*	*	*	*
!LO:TX:b:t=....:mod=	!	!	!	!	!	!
8d/L'	.	.	.	.	.	.
8d/'	.	.	.	.	.	.
8d/'	.	.	.	.	.	.
8d/J'	.	.	.	.	.	.
*Xtremolo	*	*	*	*	*	*
=4	=4	=4	=4	=4	=4	=4
8r	.	2.r	.	2.r	.	2.r
8d/	.	.	.	.	.	.
8r	.	.	.	.	.	.
(8d/L	<	.	.	.	.	.
8e-/	.	.	.	.	.	.
8f/J)	[[	.	.	.	.	.
=5	=5	=5	=5	=5	=5	=5
8r	.	2.r	.	2.r	.	2.r
8g/L	.	.	.	.	.	.
8g/	.	.	.	.	.	.
8g/J	.	.	.	.	.	.
8r	.	.	.	.	.	.
8a-/	.	.	.	.	.	.
=6	=6	=6	=6	=6	=6	=6
8r	.	2.r	.	2.r	.	2.r
8a-/L	.	.	.	.	.	.
8a-/	.	.	.	.	.	.
8a-/J	.	.	.	.	.	.
8r	.	.	.	.	.	.
8g/	.	.	.	.	.	.
!LO:LB:g=original	!	!	!	!	!	!
=7	=7	=7	=7	=7	=7	=7
8r	.	2.r	.	2.r	.	2.r
8f'/L	.	.	.	.	.	.
8f'/	.	.	.	.	.	.
8f'/	.	.	.	.	.	.
8e-'/	.	.	.	.	.	.
8e-'/J	.	.	.	.	.	.
=8	=8	=8	=8	=8	=8	=8
8r	.	2.r	.	2.r	.	2.r
8e-/	.	.	.	.	.	.
(8e-/L	<	.	.	.	.	.
8d/	.	.	.	.	.	.
8e-/	.	.	.	.	.	.
8f/J)	[[	.	.	.	.	.
=9	=9	=9	=9	=9	=9	=9
!!linebreak:original
8g'/L	.	2.r	.	2.r	.	2.r
8g'/	.	.	.	.	.	.
(8a-/	.	.	.	.	.	.
8g/	.	.	.	.	.	.
8f/	.	.	.	.	.	.
8e-/J)	.	.	.	.	.	.
=10	=10	=10	=10	=10	=10	=10
8g'/L	.	2.r	.	2.r	.	2.r
8g'/	.	.	.	.	.	.
(8a-/	.	.	.	.	.	.
8g/	.	.	.	.	.	.
8f/	.	.	.	.	.	.
8e-/J)	.	.	.	.	.	.
=11	=11	=11	=11	=11	=11	=11
8d'/L	.	2.r	.	2.r	.	2.r
8e-'/	.	.	.	.	.	.
8d'/	.	.	.	.	.	.
8e-'/	.	.	.	.	.	.
8d'/	.	.	.	.	.	.
8e-'/J	.	.	.	.	.	.
=12	=12	=12	=12	=12	=12	=12
!	!	!LO:MO:mod=2.r;	!	!LO:MO:mod=2.r;	!	!LO:TX:a:t=1.:mod=
2d;/	.	2.r	.	2.r	.	2.r;
4r;	.	.	.	.	.	.
=13	=13	=13	=13	=13	=13	=13
!	!LO:DY:t=for.:mod=	!	!	!	!	!
4gg/ 4b-/ 4e-/ 4G/	f	4E-\	Be-	4gg\	Be-	4ee-\
*tremolo	*	*	*	*	*	*tremolo
!LO:TX:a:t=....:mod=	!	!	!	!	!	!
8gg/ 8b-/ 8e-/ 8G/L'	.	8E-\	-ne-	8gg\	-ne-	8ee-\L
8gg/ 8b-/ 8e-/ 8G/'	.	8E-\	-di-	8gg\	-di-	8ee-\
8gg/ 8b-/ 8e-/ 8G/'	.	8E-\	-ctus	8gg\	-ctus	8ee-\
!	!	!	!	!LO:SIC:v:l:t=qui	!LO:MO:mod=qui	!
8gg/ 8b-/ 8e-/ 8G/J'	.	8E-\	qui	8gg\	qoi	8ee-\J
*Xtremolo	*	*	*	*	*	*
=14	=14	=14	=14	=14	=14	=14
!	!	!	!LO:MO:mod=ve-	!LO:TX:t=P:global:problem=dźwięk ff zapisany samą linią dodaną górną (bez główki nuty):mod=	!	!
(16bb-\LL	.	4D/	Ve-	4ff\	ve-	4ff\
16aa-\	.	.	.	.	.	.
16gg\	.	.	.	.	.	.
16aa-\JJ)	.	.	.	.	.	.
4ff\	.	4BB-/	-nit	4ff\	-nit	4dd\
16ff\LL	.	4r	.	4r	.	4r
16aa-\	.	.	.	.	.	.
16ccc\	.	.	.	.	.	.
16bb-\JJ	.	.	.	.	.	.
!LO:LB:g=original	!	!LO:LB:g=original	!	!	!	!
=15	=15	=15	=15	=15	=15	=15
4gg/ 4b-/ 4e-/ 4G/	.	4E-\	Be-	4gg\	Be-	4ee-\
*tremolo	*	*	*	*	*	*
!LO:TX:b:t=....:mod=	!	!	!	!	!	!
8gg/ 8b-/ 8e-/ 8G/L'	.	8E-\	-ne-	8gg\	-ne-	8ee-\L
8gg/ 8b-/ 8e-/ 8G/'	.	8E-\	-dic-	8gg\	-di-	8ee-\
8gg/ 8b-/ 8e-/ 8G/'	.	8E-\	-tus	8gg\	-ctus	8ee-\
8gg/ 8b-/ 8e-/ 8G/J'	.	8E-\	qui	8gg\	qui	8ee-\J
*Xtremolo	*	*	*	*	*	*Xtremolo
=16	=16	=16	=16	=16	=16	=16
!	!	!	!LO:MO:mod=ve-	!	!	!
(16bb-\LL	.	4D\	Ve-	4ff\	ve-	4ff\
16aa-\	.	.	.	.	.	.
16gg\	.	.	.	.	.	.
16aa-\JJ)	.	.	.	.	.	.
4ff'\	.	4BB-/	-ni	4ff\	-nit	4dd\
(16ee-\LL	.	4r	.	4r	.	4r
16dd\	.	.	.	.	.	.
16cc\	.	.	.	.	.	.
16b-\JJ)	.	.	.	.	.	.
=17	=17	=17	=17	=17	=17	=17
!!pagebreak:original
!	!	!LO:MO:mod=*null:null	!	!	!	!
*	*	*2\right	*	*	*	*
!	!	!LO:SIC:v:l:t=in	!LO:MO:mod=in	!LO:SIC:v:l:t=in	!LO:MO:mod=in	!
4ee-\	.	2E-\	jn	2b-\	jn	2.ee-\
(16b-\LL	.	.	.	.	.	.
16ee-\	.	.	.	.	.	.
16gg\	.	.	.	.	.	.
16ff\JJ)	.	.	.	.	.	.
16ee-\LL	.	4E-\	no-	4b-\	no-	.
16dd\	.	.	.	.	.	.
16cc\	.	.	.	.	.	.
16bn\JJ	.	.	.	.	.	.
=18	=18	=18	=18	=18	=18	=18
4cc\	.	2A-\	-mi-	2cc\	-mi-	2.ff\
16ff\LL	.	.	.	.	.	.
16aa-\	.	.	.	.	.	.
16ccc\	.	.	.	.	.	.
16bb-\JJ	.	.	.	.	.	.
16aa-\LL	.	4A-\	-ne	4cc\	-ne	.
16gg\	.	.	.	.	.	.
16ff\	.	.	.	.	.	.
16ee-\JJ	.	.	.	.	.	.
=19	=19	=19	=19	=19	=19	=19
16gg\LL	.	2B-\	Do-	2ee-\	Do-	2ee-\
16bb-\	.	.	.	.	.	.
16aa-\	.	.	.	.	.	.
16ff\JJ	.	.	.	.	.	.
4ee-\	.	.	.	.	.	.
4dd\	.	4BB-/	-mi-	4dd\	-mi-	4dd\
=20	=20	=20	=20	=20	=20	=20
4ee-\	.	2E-\	-ni	4ee-\	-ni	4ee-\
4r	.	.	.	4r	.	4r
4r	.	4r	.	4r	.	4r
=21	=21	=21	=21	=21	=21	=21
!	!LO:DY:t=pia.	!LO:TX:a:mod=:t=13	!	!LO:TX:a:mod=:t=13	!	!LO:TX:a:mod=:t=13
!	!LO:MO:mod= 	!	!	!	!	!
8r	p	2.r	.	2.r	.	2.r
!	!LO:DY:t= :mod=%s	!	!	!	!	!
!	!null	!	!	!	!	!
8e-/	p	.	.	.	.	.
*tremolo	*	*	*	*	*	*
!LO:TX:b:t=....:mod=	!	!	!	!	!	!
8e-/L'	.	.	.	.	.	.
8e-/'	.	.	.	.	.	.
8e-/'	.	.	.	.	.	.
8e-/J'	.	.	.	.	.	.
*Xtremolo	*	*	*	*	*	*
=22	=22	=22	=22	=22	=22	=22
8r	.	2.r	.	2.r	.	2.r
8e-|/	.	.	.	.	.	.
(8e-/L	<	.	.	.	.	.
8f/	.	.	.	.	.	.
8e-/	.	.	.	.	.	.
8d/J)	[[	.	.	.	.	.
!LO:LB:g=original	!	!	!	!	!	!
=23	=23	=23	=23	=23	=23	=23
8r	.	2.r	.	2.r	.	2.r
8d|/	.	.	.	.	.	.
*tremolo	*	*	*	*	*	*
!LO:TX:b:t=....:mod=	!	!	!	!	!	!
8d/L'	.	.	.	.	.	.
8d/'	.	.	.	.	.	.
8d/'	.	.	.	.	.	.
8d/J'	.	.	.	.	.	.
*Xtremolo	*	*	*	*	*	*
=24	=24	=24	=24	=24	=24	=24
8r	.	2.r	.	2.r	.	2.r
8d/	.	.	.	.	.	.
8r	.	.	.	.	.	.
(8d/L	<	.	.	.	.	.
8e-/	.	.	.	.	.	.
8f/J)	[[	.	.	.	.	.
=25	=25	=25	=25	=25	=25	=25
8r	.	2.r	.	2.r	.	2.r
8g'/L	.	.	.	.	.	.
8g'/	.	.	.	.	.	.
8g'/J	.	.	.	.	.	.
8r	.	.	.	.	.	.
8a-/	.	.	.	.	.	.
=26	=26	=26	=26	=26	=26	=26
!!linebreak:original
8r	.	2.r	.	2.r	.	2.r
8a-/L	.	.	.	.	.	.
8a-/	.	.	.	.	.	.
8a-/J	.	.	.	.	.	.
8r	.	.	.	.	.	.
8g/	.	.	.	.	.	.
=27	=27	=27	=27	=27	=27	=27
8r	.	2.r	.	2.r	.	2.r
8f/L	.	.	.	.	.	.
8f/	.	.	.	.	.	.
8f/J	.	.	.	.	.	.
8e-/L	.	.	.	.	.	.
8e-/J	.	.	.	.	.	.
=28	=28	=28	=28	=28	=28	=28
8r	.	2.r	.	2.r	.	2.r
8e-/	.	.	.	.	.	.
(8e-/L	.	.	.	.	.	.
8d/	.	.	.	.	.	.
8e-/	.	.	.	.	.	.
8f/J)	.	.	.	.	.	.
=29	=29	=29	=29	=29	=29	=29
8g|/L	.	2.r	.	2.r	.	2.r
8g|/	.	.	.	.	.	.
(8a-/	.	.	.	.	.	.
8g/	.	.	.	.	.	.
8f/	.	.	.	.	.	.
8e-/J)	.	.	.	.	.	.
=30	=30	=30	=30	=30	=30	=30
8g|/L	.	2.r	.	2.r	.	2.r
8g|/	.	.	.	.	.	.
(8a-/	.	.	.	.	.	.
8g/	.	.	.	.	.	.
8f/	.	.	.	.	.	.
8e-/J)	.	.	.	.	.	.
!LO:LB:g=original	!	!	!	!	!	!
=31	=31	=31	=31	=31	=31	=31
4e-/	.	2.r	.	2.r	.	2.r
4r	.	.	.	.	.	.
4d/	.	.	.	.	.	.
=32	=32	=32	=32	=32	=32	=32
4e-/	.	2.r	.	2.r	.	2.r
4e-/	.	.	.	.	.	.
4e-/	.	.	.	.	.	.
=33	=33	=33	=33	=33	=33	=33
!LO:TX:b:t=Pleni Da Capo ad Libitum:mod=	!	!LO:TX:b:t=Pleni DaCapo:mod=	!	!LO:TX:b:t=Pleni DaCapo:mod=	!	!LO:TX:b:t=Da Capo Pleni:mod=
!	!	!LO:MO:mod=2.r;	!	!LO:MO:mod=2.r;	!	!LO:MO:mod=2.r;
2e-;/	.	2.r	.	2.r	.	2.r
4ryy	.	.	.	.	.	.
==	==	==	==	==	==	==
*-	*-	*-	*-	*-	*-	*-
!!!system-decoration: [(s1)][(s2,s3)][(s4)]
!!!RDF**kern: | = vertical stroke
!!!filter-modern: sic -sq | shed -e "s/:rj/:RJ/L" | modori -m | shed -e "s/LO:DY:(a|b|rj)/LO:dy:$1/L" | autostem -r | tie -s | shed -k -e "s/[<>]//g" | humtr -p
!!!ENC: Marta Chmielewska
!!!END: 2020-08-11
!!!ENC: Leszek Kubiak
!!!END: 2021-11-19
!!!ENC-modern: Andrzej Borzym
!!!END-modern: 2022-06-15
